shared/resources/images/icons/icon-personalized.svg

<?xml version="1.0" encoding="UTF-8"?>
<svg width="26px" height="14px" viewBox="0 0 26 14" version="1.1" xmlns="http://www.w3.org/2000/svg" xmlns:xlink="http://www.w3.org/1999/xlink">
    <!-- Generator: Sketch 43.2 (39069) - http://www.bohemiancoding.com/sketch -->
    <title>personalized</title>
    <desc>Created with Sketch.</desc>
    <defs></defs>
    <g id="Page-1" stroke="none" stroke-width="1" fill="none" fill-rule="evenodd">
        <g id="OXT-icons" transform="translate(-878.000000, -123.000000)">
            <g id="personalized" transform="translate(878.000000, 123.000000)">
                <g id="Layer_2">
                    <g id="Layer_1-2">
                        <circle id="Oval" fill="#5E6062" cx="2.68320004" cy="3.8797218" r="1.75589568"></circle>
                        <path d="M3.75707832,5.73133923 C3.11371225,6.18715455 2.25268784,6.18715455 1.60932177,5.73133923 C0.681683842,5.88988082 0.00254938802,6.69272378 0,7.63380882 L0,10.9870611 C4.0463599e-17,11.3174714 0.267850519,11.5853219 0.59826088,11.5853219 L4.76813921,11.5853219 C5.09854957,11.5853219 5.36640009,11.3174714 5.36640009,10.9870611 L5.36640009,7.63380882 C5.3638507,6.69272378 4.68471625,5.88988082 3.75707832,5.73133923 L3.75707832,5.73133923 Z" id="Shape" fill="#5E6062"></path>
                        <circle id="Oval" fill="#0DC0DC" cx="9.78156538" cy="2.54260874" r="2.54260874"></circle>
                        <path d="M11.3370437,5.22880009 L11.3370437,5.22880009 C10.8918031,5.56935412 10.3417013,5.74390565 9.78156538,5.72236531 C9.22470744,5.72137087 8.68164216,5.54905208 8.22608709,5.22880009 L8.22608709,5.22880009 C6.89370071,5.47809031 5.9193754,6.62854367 5.89286966,7.98379144 L5.89286966,13.1108872 C5.89286966,13.4412975 6.16072018,13.7091481 6.49113054,13.7091481 L13.0720002,13.7091481 C13.4024106,13.7091481 13.6702611,13.4412975 13.6702611,13.1108872 L13.6702611,7.98379144 C13.6662533,6.62015326 12.6814103,5.45728098 11.3370437,5.22880009 L11.3370437,5.22880009 Z" id="Shape" fill="#0DC0DC"></path>
                        <circle id="Oval" fill="#5E6062" cx="16.951722" cy="3.8797218" r="1.75589568"></circle>
                        <path d="M18.0256003,5.73133923 C17.7182195,5.96649062 17.3384545,6.08708451 16.951722,6.07234793 C16.5672426,6.07162019 16.192306,5.95255956 15.8778437,5.73133923 C14.9584046,5.90409847 14.2864516,6.69845192 14.268522,7.63380882 L14.268522,10.9870611 C14.268522,11.3174714 14.5363725,11.5853219 14.8667829,11.5853219 L19.0366612,11.5853219 C19.3670715,11.5853219 19.6349221,11.3174714 19.6349221,10.9870611 L19.6349221,7.63380882 C19.6323727,6.69272378 18.9532382,5.88988082 18.0256003,5.73133923 L18.0256003,5.73133923 Z" id="Shape" fill="#5E6062"></path>
                        <circle id="Oval" fill="#5E6062" cx="23.0300526" cy="3.8797218" r="1.75589568"></circle>
                        <path d="M23.0330439,6.07234793 C22.6487591,6.05902679 22.2736279,5.95255956 21.9591656,5.73133923 C21.0361681,5.90033713 20.3596475,6.6956553 20.3408699,7.63380882 L20.3408699,10.9870611 C20.3408699,11.3174714 20.6087204,11.5853219 20.9391308,11.5853219 L25.1269569,11.5853219 C25.4573673,11.5853219 25.7252178,11.3174714 25.7252178,10.9870611 L25.7252178,7.63380882 C25.7214349,6.68793827 25.0345191,5.88337389 24.1009395,5.73133923 C23.7951627,5.96516387 23.4177458,6.08568353 23.0330439,6.07234793 Z" id="Shape" fill="#5E6062"></path>
                    </g>
                </g>
            </g>
        </g>
    </g>
</svg>

<svg xmlns="http://www.w3.org/2000/svg" viewBox="0 0 25.73 13.72"><defs><style>.cls-1{fill:#222e65;isolation:isolate;}.cls-2{fill:#15c0dc;}</style></defs><title>personalized 20px blue_1</title><g id="Layer_2" data-name="Layer 2"><g id="Layer_1-2" data-name="Layer 1"><circle class="cls-1" cx="2.68" cy="3.88" r="1.76"/><path class="cls-1" d="M3.76,5.74a1.86,1.86,0,0,1-2.15,0A1.94,1.94,0,0,0,0,7.64V11a.6.6,0,0,0,.6.6H4.77a.6.6,0,0,0,.6-.6V7.64A1.94,1.94,0,0,0,3.76,5.74Z"/><circle class="cls-2" cx="9.79" cy="2.55" r="2.55"/><path class="cls-2" d="M11.34,5.23h0a2.41,2.41,0,0,1-1.56.49,2.72,2.72,0,0,1-1.56-.49h0A2.86,2.86,0,0,0,5.9,8v5.13a.6.6,0,0,0,.6.6h6.58a.6.6,0,0,0,.6-.6V8A2.81,2.81,0,0,0,11.34,5.23Z"/><circle class="cls-1" cx="16.96" cy="3.88" r="1.76"/><path class="cls-1" d="M18,5.74A1.66,1.66,0,0,1,17,6.08a1.87,1.87,0,0,1-1.07-.34,2,2,0,0,0-1.61,1.9V11a.6.6,0,0,0,.6.6H19a.6.6,0,0,0,.6-.6V7.64A1.94,1.94,0,0,0,18,5.74Z"/><circle class="cls-1" cx="23.04" cy="3.88" r="1.76"/><path class="cls-1" d="M24.11,5.74A1.66,1.66,0,0,1,23,6.08,1.87,1.87,0,0,1,22,5.74a2,2,0,0,0-1.61,1.9V11a.6.6,0,0,0,.6.6h4.17a.6.6,0,0,0,.6-.6V7.64A1.94,1.94,0,0,0,24.11,5.74Z"/></g></g></svg>
